apps/web/src/assets/svgs/coco.svg

<?xml version="1.0" encoding="UTF-8" standalone="no"?>
<!-- Created with Inkscape (http://www.inkscape.org/) -->

<svg
   width="8mm"
   height="8mm"
   viewBox="0 0 8 8"
   version="1.1"
   id="svg1"
   sodipodi:docname="coco_flat.svg"
   inkscape:version="1.3.2 (091e20ef0f, 2023-11-25)"
   xmlns:inkscape="http://www.inkscape.org/namespaces/inkscape"
   xmlns:sodipodi="http://sodipodi.sourceforge.net/DTD/sodipodi-0.dtd"
   xmlns="http://www.w3.org/2000/svg"
   xmlns:svg="http://www.w3.org/2000/svg">
  <sodipodi:namedview
     id="namedview1"
     pagecolor="#ffffff"
     bordercolor="#000000"
     borderopacity="0.25"
     inkscape:showpageshadow="2"
     inkscape:pageopacity="0.0"
     inkscape:pagecheckerboard="0"
     inkscape:deskcolor="#d1d1d1"
     inkscape:document-units="mm"
     inkscape:zoom="16.078158"
     inkscape:cx="29.667578"
     inkscape:cy="26.930946"
     inkscape:window-width="2560"
     inkscape:window-height="1515"
     inkscape:window-x="0"
     inkscape:window-y="1415"
     inkscape:window-maximized="1"
     inkscape:current-layer="layer1" />
  <defs
     id="defs1" />
  <g
     inkscape:label="Capa 1"
     inkscape:groupmode="layer"
     id="layer1"
     transform="translate(-213.54028,-109.47073)">
    <g
       id="g488-4"
       transform="matrix(0.85249549,-0.46156314,0.45194794,0.87063236,-45.154135,22.220672)">
      <g
         id="g487-9"
         transform="matrix(0.82717052,0.47756713,-0.47756713,0.82717052,205.21367,100.52553)"
         inkscape:transform-center-x="-0.1643757"
         inkscape:transform-center-y="0.091840846">
        <path
           id="path479-5"
           style="color:#000000;fill:#000000;stroke-linecap:round;stroke-linejoin:round;-inkscape-stroke:none"
           d="M 48.560354 98.774961 C 48.160574 98.795094 47.759859 98.905604 47.388153 99.129937 A 0.30864149 0.30864149 1.7881672 0 0 47.33411 99.156064 C 47.320364 99.166512 47.307638 99.177631 47.294314 99.188269 C 46.940922 99.423586 46.617397 99.767241 46.351746 100.24588 C 46.013337 100.8556 45.77906 101.46426 45.686459 102.06702 L 45.580114 102.05878 A 0.25720149 0.25720149 0 0 0 45.304741 102.29509 A 0.25720149 0.25720149 0 0 0 45.540799 102.57005 L 45.642641 102.57791 C 45.640126 102.74655 45.649482 102.91487 45.672092 103.0823 C 45.67392 103.09583 45.676602 103.1092 45.678603 103.12272 L 45.5901 103.1424 A 0.25720149 0.25720149 0 0 0 45.396455 103.45102 A 0.25720149 0.25720149 0 0 0 45.705326 103.64478 L 45.79435 103.62399 C 46.025603 104.3547 46.525087 105.04757 47.318091 105.68358 C 48.189993 106.38288 49.258882 106.75476 50.333714 106.6701 C 50.478695 106.65868 50.62378 106.63785 50.768049 106.60935 L 50.79502 106.75012 A 0.25720149 0.25720149 0 0 0 51.095882 106.95517 A 0.25720149 0.25720149 0 0 0 51.301032 106.65437 L 51.26647 106.47432 C 51.454146 106.41001 51.639611 106.3304 51.821721 106.23504 A 0.25720149 0.25720149 0 0 0 52.165822 106.34786 A 0.25720149 0.25720149 0 0 0 52.28125 106.00196 L 52.264311 105.96796 C 52.642821 105.70622 53.001152 105.37116 53.3264 104.95713 C 54.2429 103.79044 54.143403 102.65227 53.626979 101.80092 C 53.110554 100.94957 52.241669 100.33154 51.636623 99.918073 C 51.022414 99.498342 50.109952 98.948311 49.123021 98.802973 C 48.937971 98.775722 48.749359 98.765442 48.560354 98.774961 z M 48.585048 99.380611 C 48.731477 99.377936 48.881061 99.389775 49.033382 99.412206 C 49.845757 99.531838 50.706773 100.02982 51.289214 100.42784 C 51.880821 100.83213 52.676978 101.42479 53.099338 102.12107 C 53.359853 102.55054 53.502609 102.99987 53.387737 103.51822 A 0.30864149 0.30864149 1.7881672 0 0 53.343547 103.5841 C 53.195459 103.9423 52.950346 104.17044 52.562307 104.26173 C 52.174267 104.35303 51.619325 104.29023 50.90602 103.95294 C 50.043166 103.5449 48.332079 102.45023 47.794787 101.60954 C 47.494047 101.13896 47.309322 100.73883 47.285172 100.44124 C 47.261022 100.14364 47.341358 99.926562 47.707083 99.648586 A 0.30864149 0.30864149 1.7881672 0 0 47.750747 99.59921 C 48.014102 99.448525 48.293412 99.38594 48.585048 99.380611 z M 48.725282 99.907367 C 48.498456 99.912537 48.280311 99.964228 48.125078 100.16036 C 47.997376 100.32175 47.974823 100.53577 48.015439 100.72856 C 48.056059 100.92134 48.151448 101.1108 48.287219 101.3088 C 48.558762 101.70482 48.999301 102.13324 49.579846 102.54714 C 50.35403 103.09908 50.990605 103.41275 51.507778 103.54111 C 52.024951 103.66947 52.460393 103.61296 52.722917 103.33402 C 52.817556 103.23347 52.901181 103.08034 52.900551 102.90841 C 52.89992 102.73649 52.829397 102.56914 52.709101 102.39284 C 52.468499 102.04023 52.007079 101.61095 51.158312 100.96659 A 0.25720149 0.25720149 0 0 0 50.797047 101.01536 A 0.25720149 0.25720149 0 0 0 50.845457 101.37677 C 51.676438 102.00764 52.113443 102.43153 52.285315 102.68341 C 52.371255 102.80936 52.386544 102.88286 52.386644 102.90995 C 52.386743 102.93705 52.385267 102.94232 52.349357 102.98052 C 52.262807 103.07252 52.052847 103.14523 51.632783 103.04103 C 51.212721 102.93677 50.618744 102.65452 49.878875 102.12703 C 49.335388 101.73955 48.93327 101.34143 48.712744 101.01982 C 48.602482 100.85902 48.539269 100.71723 48.519414 100.62299 C 48.499564 100.52879 48.513608 100.50026 48.529408 100.48033 C 48.529524 100.48018 48.684444 100.41025 48.920193 100.42555 C 49.155943 100.44085 49.440824 100.50862 49.652604 100.58588 A 0.25720149 0.25720149 0 0 0 49.982644 100.43386 A 0.25720149 0.25720149 0 0 0 49.829877 100.10369 C 49.571604 100.00949 49.255024 99.933549 48.953324 99.91396 C 48.877899 99.909062 48.800891 99.905644 48.725282 99.907367 z M 46.735369 100.8468 C 46.83569 101.20708 47.034074 101.56382 47.275427 101.94147 C 47.980702 103.04499 49.69644 104.06458 50.642307 104.51187 C 51.381102 104.86124 52.028596 104.97988 52.574306 104.88872 C 52.381279 105.09586 52.180325 105.27231 51.974108 105.42135 A 0.25720149 0.25720149 0 0 0 51.877107 105.36113 A 0.25720149 0.25720149 0 0 0 51.679537 105.37486 A 0.25720149 0.25720149 0 0 0 51.552114 105.68384 C 51.419164 105.7541 51.284765 105.81486 51.149058 105.86487 L 51.122807 105.72847 A 0.25720149 0.25720149 0 0 0 50.822505 105.52341 A 0.25720149 0.25720149 0 0 0 50.617355 105.82421 L 50.651917 106.00426 C 50.529951 106.02805 50.407532 106.04523 50.285108 106.05488 C 49.383278 106.12588 48.468458 105.8131 47.705197 105.20094 C 46.805549 104.47939 46.384996 103.75542 46.282947 102.99978 C 46.192648 102.33115 46.357449 101.61403 46.735369 100.8468 z M 46.904588 102.79656 A 0.25720149 0.25720149 0 0 0 46.654536 103.01932 A 0.25720149 0.25720149 0 0 0 46.874839 103.30858 L 47.025428 103.33006 A 0.25720149 0.25720149 0 0 0 47.314264 103.1092 A 0.25720149 0.25720149 0 0 0 47.09398 102.82048 L 46.945073 102.79895 A 0.25720149 0.25720149 0 0 0 46.904588 102.79656 z M 47.665981 103.72776 A 0.25720149 0.25720149 0 0 0 47.552956 103.76755 L 47.26179 103.95498 A 0.25720149 0.25720149 0 0 0 47.185423 104.31046 A 0.25720149 0.25720149 0 0 0 47.541183 104.38881 L 47.831789 104.20139 A 0.25720149 0.25720149 0 0 0 47.908155 103.84592 A 0.25720149 0.25720149 0 0 0 47.74583 103.73256 A 0.25720149 0.25720149 0 0 0 47.665981 103.72776 z " />
      </g>
    </g>
  </g>
</svg>

<svg xmlns="http://www.w3.org/2000/svg" width="8mm" height="8mm" viewBox="0 0 8 8"><path d="M48.56 98.775c-.4.02-.8.13-1.172.355a.3.3 1.788 0 0-.054.026l-.04.032c-.353.236-.677.58-.942 1.058-.339.61-.573 1.218-.666 1.821l-.106-.008a.257.257 0 0 0-.275.236.257.257 0 0 0 .236.275l.102.008q-.005.254.03.504.002.02.006.04l-.089.02a.257.257 0 0 0-.194.309.257.257 0 0 0 .31.194l.088-.021c.232.73.731 1.424 1.524 2.06.872.699 1.94 1.07 3.016.986q.218-.017.434-.06l.027.14a.257.257 0 0 0 .3.205.257.257 0 0 0 .206-.3l-.035-.18q.282-.097.556-.24a.257.257 0 0 0 .344.113.257.257 0 0 0 .115-.346l-.017-.034a4.9 4.9 0 0 0 1.062-1.01c.917-1.168.817-2.306.301-3.157s-1.385-1.47-1.99-1.883c-.615-.42-1.527-.97-2.514-1.115a3 3 0 0 0-.563-.028m.025.606q.22-.003.448.031c.813.12 1.674.618 2.256 1.016.592.404 1.388.997 1.81 1.693.26.43.404.879.289 1.397a.3.3 1.788 0 0-.044.066c-.149.358-.394.586-.782.678-.388.091-.943.028-1.656-.31-.863-.407-2.574-1.502-3.111-2.342-.301-.471-.486-.871-.51-1.169-.024-.297.056-.514.422-.792a.3.3 1.788 0 0 .044-.05c.263-.15.542-.213.834-.218m.14.526c-.227.006-.445.057-.6.253-.128.162-.15.376-.11.569.041.192.136.382.272.58.272.396.712.824 1.293 1.238.774.552 1.41.866 1.928.994.517.128.952.072 1.215-.207a.64.64 0 0 0 .178-.426c-.001-.172-.072-.339-.192-.515-.24-.353-.702-.782-1.55-1.426a.257.257 0 0 0-.362.048.257.257 0 0 0 .048.362c.831.63 1.268 1.055 1.44 1.306.086.126.102.2.102.227s-.002.032-.038.07c-.086.093-.296.165-.716.061s-1.014-.386-1.754-.914c-.544-.387-.946-.786-1.166-1.107a1.2 1.2 0 0 1-.194-.397c-.02-.094-.005-.123.01-.143 0 0 .155-.07.391-.054.236.015.52.083.733.16a.257.257 0 0 0 .33-.152.257.257 0 0 0-.153-.33 3.3 3.3 0 0 0-.877-.19 3 3 0 0 0-.228-.007m-1.99.94c.1.36.3.717.54 1.094.706 1.104 2.421 2.124 3.367 2.57.74.35 1.387.469 1.932.378a4 4 0 0 1-.6.532.3.3 0 0 0-.097-.06.26.26 0 0 0-.197.014.26.26 0 0 0-.128.309q-.2.105-.403.18l-.026-.136a.257.257 0 0 0-.3-.205.257.257 0 0 0-.206.301l.035.18a3 3 0 0 1-.367.05c-.902.072-1.817-.24-2.58-.853-.9-.722-1.32-1.446-1.422-2.201-.09-.669.074-1.386.452-2.153m.17 1.95a.26.26 0 0 0-.25.222.257.257 0 0 0 .22.29l.15.021a.257.257 0 0 0 .29-.22.257.257 0 0 0-.221-.29l-.149-.021zm.761.93a.26.26 0 0 0-.113.04l-.291.188a.257.257 0 0 0-.077.355.257.257 0 0 0 .356.079l.29-.188a.257.257 0 0 0 .077-.355.26.26 0 0 0-.162-.113.3.3 0 0 0-.08-.005" style="color:#000;fill:#000;stroke-linecap:round;stroke-linejoin:round;-inkscape-stroke:none" transform="matrix(.921 .034 -.03329 .94059 -38.318 -94.448)"/></svg>
